X:1
T:[ID 1-91a]
T:[ID 1-91a]
T:Bezeichnung standardisiert: Sesken [Sammelbezeichnung]; Sesken
T:Urheber unbekannt Datum in der hier transkribierten schriftlichen Quelle: vermutlich vor 1767
C:Urheber unbekannt
C:Datum in der hier transkribierten schriftlichen Quelle: vermutlich vor 1767
L:1/8
M:2/2
K:G
V:1 treble 
V:1
 G2 | GF G2 D2 G2 | A2 D2 D2 A2 | AG A2 D2 A2 | B2 G2 G2 B2 | BA B2 G2 B2 | c6 d2 | B2 G2 A2 F2 | %8
 G6 ::"^O)" d2 | B2 d2 A2 d2 | B2 e2 d2 ^c2 | d6 D2 |"^O)" d2 | B2 d2 A2 d2 | B2 e2 d2 ^c2 | %16
 d6 D2 |"^O)" EF G2 FG A2 | GA B2 AB c2 | B2 d2 c2 A2 |"^[sic]" G6 x2 |"^O)" EF G2 FA A2 | %22
 GA B2 AB c2 | B2 d2 c2 A2 |"^[sic]" G6 x2 :| %25

